assets/img/braze_icons/layers-three-01.svg

<svg fill="none" height="24" viewBox="0 0 24 24" width="24" xmlns="http://www.w3.org/2000/svg"><g clip-rule="evenodd" fill="#801ed7" fill-rule="evenodd"><path d="m1.10555 11.5529c.24699-.494.84766-.6943 1.34164-.4473l9.55281 4.7764 9.5528-4.7764c.4939-.247 1.0946-.0467 1.3416.4473.247.4939.0468 1.0946-.4472 1.3416l-9.6422 4.8211c-.0074.0037-.016.0081-.0256.013-.0933.0476-.2864.1461-.5028.1867-.1828.0343-.3704.0343-.5532 0-.2165-.0406-.4095-.1391-.5028-.1867-.0097-.0049-.0182-.0093-.0256-.013l-9.64224-4.8211c-.49398-.247-.694202-.8477-.44721-1.3416z"/><path d="m1.10555 16.5529c.24699-.494.84766-.6943 1.34164-.4473l9.55281 4.7764 9.5528-4.7764c.4939-.247 1.0946-.0467 1.3416.4473.247.4939.0468 1.0946-.4472 1.3416l-9.6422 4.8211c-.0074.0037-.016.0081-.0256.013-.0933.0476-.2864.1461-.5028.1867-.1828.0343-.3704.0343-.5532 0-.2165-.0406-.4095-.1391-.5028-.1867-.0097-.0049-.0182-.0093-.0256-.013l-9.64224-4.8211c-.49398-.247-.694202-.8477-.44721-1.3416z"/><path d="m11.7234 1.0848c.1828-.03429.3704-.03429.5532 0 .2164.04061.4095.13914.5028.18675.0096.00491.0182.00927.0256.01297l9.6422 4.82112c.3388.16939.5528.51565.5528.89442 0 .37878-.214.72504-.5528.89443l-9.6422 4.82111c-.0074.0037-.016.0081-.0256.013-.0933.0476-.2864.1461-.5028.1867-.1828.0343-.3704.0343-.5532 0-.2165-.0406-.4095-.1391-.5028-.1867-.0097-.0049-.0182-.0093-.0256-.013l-9.64224-4.82111c-.33878-.16939-.552785-.51565-.552785-.89443 0-.37877.214005-.72503.552785-.89442l9.64224-4.82112c.0074-.0037.016-.00807.0256-.01297.0933-.04761.2863-.14614.5028-.18675z"/></g></svg>

<svg width="24" height="24" viewBox="0 0 24 24" fill="none" xmlns="http://www.w3.org/2000/svg">
<path fill-rule="evenodd" clip-rule="evenodd" d="M1.10555 11.5529C1.35254 11.0589 1.95321 10.8586 2.44719 11.1056L12 15.882L21.5528 11.1056C22.0467 10.8586 22.6474 11.0589 22.8944 11.5529C23.1414 12.0468 22.9412 12.6475 22.4472 12.8945L12.805 17.7156C12.7976 17.7193 12.789 17.7237 12.7794 17.7286C12.6861 17.7762 12.493 17.8747 12.2766 17.9153C12.0938 17.9496 11.9062 17.9496 11.7234 17.9153C11.5069 17.8747 11.3139 17.7762 11.2206 17.7286C11.2109 17.7237 11.2024 17.7193 11.195 17.7156L1.55276 12.8945C1.05878 12.6475 0.858558 12.0468 1.10555 11.5529Z" fill="#801ED7"/>
<path fill-rule="evenodd" clip-rule="evenodd" d="M1.10555 16.5529C1.35254 16.0589 1.95321 15.8586 2.44719 16.1056L12 20.882L21.5528 16.1056C22.0467 15.8586 22.6474 16.0589 22.8944 16.5529C23.1414 17.0468 22.9412 17.6475 22.4472 17.8945L12.805 22.7156C12.7976 22.7193 12.789 22.7237 12.7794 22.7286C12.6861 22.7762 12.493 22.8747 12.2766 22.9153C12.0938 22.9496 11.9062 22.9496 11.7234 22.9153C11.5069 22.8747 11.3139 22.7762 11.2206 22.7286C11.2109 22.7237 11.2024 22.7193 11.195 22.7156L1.55276 17.8945C1.05878 17.6475 0.858558 17.0468 1.10555 16.5529Z" fill="#801ED7"/>
<path fill-rule="evenodd" clip-rule="evenodd" d="M11.7234 1.0848C11.9062 1.05051 12.0938 1.05051 12.2766 1.0848C12.493 1.12541 12.6861 1.22394 12.7794 1.27155C12.789 1.27646 12.7976 1.28082 12.805 1.28452L22.4472 6.10564C22.786 6.27503 23 6.62129 23 7.00006C23 7.37884 22.786 7.7251 22.4472 7.89449L12.805 12.7156C12.7976 12.7193 12.789 12.7237 12.7794 12.7286C12.6861 12.7762 12.493 12.8747 12.2766 12.9153C12.0938 12.9496 11.9062 12.9496 11.7234 12.9153C11.5069 12.8747 11.3139 12.7762 11.2206 12.7286C11.2109 12.7237 11.2024 12.7193 11.195 12.7156L1.55276 7.89449C1.21398 7.7251 0.999975 7.37884 0.999975 7.00006C0.999975 6.62129 1.21398 6.27503 1.55276 6.10564L11.195 1.28452C11.2024 1.28082 11.211 1.27645 11.2206 1.27155C11.3139 1.22394 11.5069 1.12541 11.7234 1.0848Z" fill="#801ED7"/>
</svg>
